X:1
T:Denmark, 76.76.76 D
T:Denmark, 76.76.76 D
T:Chester G. Allen, 1880
T:Public Domain Courtesy of the Cyber Hymnal™
C:Chester G. Allen, 1880
Z:Public Domain
Z:Courtesy of the Cyber Hymnal™
%%score ( 1 2 ) ( 3 4 )
L:1/8
Q:1/4=115
M:4/4
K:A
V:1 treble 
V:2 treble 
V:3 bass 
V:4 bass 
V:1
 [CE]2 | [Ec]2 [CA]2 [DB]2 [Ec]2 | [CA]4 [CE]2 [Ec]2 | [Fd]2 [Ec]2 [EG]2 [EA]2 | [GB]4 z2 E2 | %5
 [Ec]2 [CA]2 [DB]2 [Ec]2 | [CA]4 [CE]2 [Ec]2 | [EB]2 [Ge]2 [Ge]2 [A^d]2 | [Ge]4 z E2 | %9
 [Ed]2 [Ed]2 [Ed]2 [Ed]2 | [Ec]3 [DB] [CA]2 E2 | [DF]2 [EA]2 [EG]2 [EA]2 | [EB]4 z2 E2 | %13
 [Ec]2 [Ee]2 [Ed]2 [Ec]2 x8 | ([Ec]3 [DB]) [CA]2 E2 | [DF]2 [FB]2 [EA]2 [DG]2 | [CA]4 z2 E2 | %17
 [EG]2 [EA]2 [EB]2 [Ec]2 | [EA]4 [CE]2 [Ec]2 | [Fd]2 [Ec]2 [EG]2 [EA]2 | [EB]4 z2 E2 x8 | %21
 [Ec]2 [Ee]2 [Ed]2 [Ec]2 | ([Ec]3 [DB]) [CA]2 E2 | [DF]2 [FB]2 [EA]2 [DG]2 | [CA]4 z2 |] %25
V:2
 x2 | x8 | x8 | x8 | x6 E2 | x8 | x8 | x8 | x5 E2 | x8 | x6 E2 | x8 | x6 E2 | x16 | x6 E2 | x8 | %16
 x6 E2 | x8 | x8 | x8 | x6 E2 x8 | x8 | x6 E2 | x8 | x6 |] %25
V:3
 [A,,A,]2 | [A,,A,]2 [A,,A,]2 [A,,A,]2 [A,,A,]2 | [A,,A,]4 [A,,A,]2 [A,,A,]2 | %3
 [A,,A,]2 [A,,A,]2 [E,D]2 (CA,) | [E,G,]4 z2 [E,G,]2 | [A,,A,]2 [A,,A,]2 [A,,A,]2 [A,,A,]2 | %6
 [A,,A,]4 [A,,A,]2 [A,,A,]2 | [B,,G,]2 [B,,B,]2 [B,,B,]2 [B,,B,]2 | [E,B,]4 z [E,G,]2 | %9
 [E,G,]2 [F,A,]2 [G,B,]2 [E,G,]2 | A,4 [A,,A,]2 [C,A,]2 | [D,A,]2 [C,A,]2 [B,,D]2 (CA,) | %12
 [E,G,]4 z2 [E,G,]2 | [A,,A,]2 [A,,C]2 [A,,B,]2 [A,,A,]2 (A,3 G,) [F,A,]2 [C,A,]2 | %14
 [D,A,]2 [D,D]2 [E,C]2 [E,B,]2 | [A,,A,]4 z2 E,2 | [E,B,]2 [E,C]2 [E,D]2 [E,E]2 | %17
 [A,,C]4 [A,,A,]2 [A,,A,]2 | [A,,A,]2 [A,,A,]2 [E,D]2 (CA,) | [E,G,]4 z2 [E,G,]2 | %20
 [A,,A,]2 [A,,C]2 [A,,B,]2 [A,,A,]2 (A,3 G,) [F,A,]2 [C,A,]2 | [D,A,]2 [D,D]2 [E,C]2 [E,B,]2 | %22
 [A,,A,]4 z2 x2 | x8 | x6 |] %25
V:4
 x2 | x8 | x8 | x6 E,2 | x8 | x8 | x8 | x8 | x7 | x8 | A,4 x4 | x6 G,,2 | x8 | x8 E,4 x4 | x8 | %15
 x6 E,2 | x8 | x8 | x6 E,2 | x8 | x8 E,4 x4 | x8 | x8 | x8 | x6 |] %25

